X: 40
M: 4/4
L: 1/8
K: F
c |:\
"F"f2F2 "A/F7"FAGF | "Bb"D2F2 "Gm"B,DFD | "C7"E2G2 "E/C7"CEGE | "F"FEFG "E/C7"Acde |
"F"f2F2 "A/F7"FAGF | "Bb"D2F2 "Gm"B,DFD | "C7"ECEG "E/C7"cBAG | "F"F2A2 "C7"Fcde :|
"F"f2ef "A/F"cAFA | "Bb"d2^cd "D/Bb"BFDB | "F"c2=Bc "Dm"dc_BA | "Gm"B2G2 "C7"Gcde |
"F"f2ef "A/F"cAFA | "Bb"d2^cd "D/Bb"BFDB | "F"c2=Bc "C7"_BGEG | "F"F2A2 "C7"Fcde |
"F"f2ef "A/F"cAFA | "Bb"d2^cd "D/Bb"BFDB | "F"c2=Bc "Dm"dc_BA | "Gm"B2G2 "C7"Gcde |
"F"f2F2 "A/F7"FAGF | "Bb"D2F2 "Gm"B,DFD | "C7"ECEG "E/C7"cBAG | "F"F2A2 F4 |]


